X: 4
T: Up Leitrim
R: jig
M: 6/8
L: 1/8
K: Dmaj
f2e |: dAA BAB | dAA f2e |dAA Bdf | ede f2e |
| dAA BAB | dAA f2e |dAA Bdf | ede f3 ||
g3 faf | fed f3 | gfg afd | fed e2d |
gag faf | fed f2e| dBA Bdf |1 ede f2e :|2 e3 d3 ||


Tune 3257	Setting 28783

